!!!!SEGMENT: Any1009b-Missa_Cueur_langoreulx-Gloria--Montserrat_766.krn
!!!id: Any1009b
!!!SMS: Montserrat 766
!!!AGN: Mass; Gloria
!!!voices: 5
!!!OPR: Missa Cueur langoreulx (Montserrat 766)
!!!COM: Anonymous
!!!OTL: Gloria
**kern	**kern	**kern	**kern	**kern
*part5	*part4	*part3	*part2	*part1
*staff5	*staff4	*staff3	*staff2	*staff1
*I"Bassus	*I"Tenor II	*I"Tenor I	*I"Altus	*I"Superius
*I'B	*I'T. II	*I'T. I	*I'A	*I'S
*clefF4	*clefGv2	*clefGv2	*clefGv2	*clefG2
*k[]	*k[]	*k[]	*k[]	*k[]
*C:	*C:	*C:	*C:	*C:
*M2/1	*M2/1	*M2/1	*M2/1	*M2/1
*met(C|)	*met(C|)	*met(C|)	*met(C|)	*met(C|)
=1	=1	=1	=1	=1
!!section: Et in terra
!!!OMD: Et in terra
1D	1r	1.d	0r	0r
1D	[1A	.	.	.
.	.	2d	.	.
=2	=2	=2	=2	=2
1D	2A]	1d	0r	0r
.	2A	.	.	.
[1F	2D	1d	.	.
.	2D	.	.	.
=3	=3	=3	=3	=3
2F]	1.A	1.c	0r	0a
4E	.	.	.	.
4D	.	.	.	.
2.F	.	.	.	.
.	[2F	2c	.	.
4G	.	.	.	.
=4	=4	=4	=4	=4
2.A	4F]	2c	0r	1a
.	4G	.	.	.
.	4A	2.A	.	.
4G	4B	.	.	.
2F	[1c	.	.	1a
.	.	4B	.	.
2F	.	4c	.	.
.	.	4d	.	.
=5	=5	=5	=5	=5
2E	2c]	1e	0r	0g
2C	2c	.	.	.
[1G	4d	1d	.	.
.	4G	.	.	.
.	[2d	.	.	.
=6	=6	=6	=6	=6
2G]	4d]	2r	0r	1r
.	4c	.	.	.
2G	4B	2d	.	.
.	4A	.	.	.
2G	1B	2d	.	1g
2G	.	2d	.	.
=7	=7	=7	=7	=7
0D	1A	2f	1d	1a
.	.	2d	.	.
.	2r	2.f	2d	2d
.	2D	.	2d	[2a
.	.	4e	.	.
=8	=8	=8	=8	=8
2r	2D	2.d	1d	4a]
.	.	.	.	4g
2D	2A	.	.	4f
.	.	8cL	.	4e
.	.	8BJ	.	.
2D	2F	1A	1d	1f
2D	2D	.	.	.
=9	=9	=9	=9	=9
1AA	1A	2r	0c	[0e
.	.	2A	.	.
2r	1E	2A	.	.
2AA	.	2A	.	.
=10	=10	=10	=10	=10
2AA	2r	1c	1r	0e]
2AA	2A	.	.	.
2C	2G	2r	1c	.
2C	2G	2c	.	.
=11	=11	=11	=11	=11
1GG	2.G	2B	1d	0r
.	.	2B	.	.
.	4F	.	.	.
2r	2E	2B	2G	.
[2GG	[2D	2B	[2d	.
=12	=12	=12	=12	=12
2GG]	2D]	2d	4d]	0r
.	.	.	4c	.
2GG	2G	2d	4B	.
.	.	.	4A	.
2GG	2G	2d	1B	.
2GG	2G	2d	.	.
=13	=13	=13	=13	=13
2.D	2.F	2.f	[0A	1a
4E	4G	4e	.	.
4F	2A	4d	.	2a
4G	.	4c	.	.
[2A	[2D	[2f	.	2a
=14	=14	=14	=14	=14
4A]	4D]	4f]	0A]	1a
4G	4E	4e	.	.
4F	2F	4d	.	.
4E	.	4c	.	.
1F	2D	2d	.	1a
.	2F	2d	.	.
=15	=15	=15	=15	=15
2E	4C	2e	0r	0g
.	4D	.	.	.
4C	4E	2e	.	.
4D	4F	.	.	.
4E	2G	2c	.	.
4F	.	.	.	.
[2G	[2C	[2e	.	.
=16	=16	=16	=16	=16
4G]	4C]	4e]	0r	1r
4F	4D	4d	.	.
4E	4E	4c	.	.
4D	4F	4B	.	.
1E	2G	1c	.	1g
.	2C	.	.	.
=17	=17	=17	=17	=17
1D	1.F	1r	1d	2a
.	.	.	.	2a
2r	.	[1A	2d	2d
2D	2D	.	2d	[2a
=18	=18	=18	=18	=18
2F	1D	2A]	1d	4a]
.	.	.	.	4g
2F	.	2A	.	4f
.	.	.	.	4e
2F	2r	2A	1d	1f
2F	2D	2A	.	.
=19	=19	=19	=19	=19
1.C	2E	2G	0c	[0e
.	2E	2A	.	.
.	2E	2G	.	.
2AA	[2A	[2c	.	.
=20	=20	=20	=20	=20
0AA	2A]	4c]	1r	0e]
.	.	4B	.	.
.	4G	4A	.	.
.	4F	4G	.	.
.	1E	1A	1c	.
=21	=21	=21	=21	=21
1r	1D	2r	2d	0r
.	.	2.d	2d	.
2r	1r	.	2G	.
.	.	4c	.	.
[2D	.	4B	[2d	.
.	.	4A	.	.
=22	=22	=22	=22	=22
2D]	1r	2B	4d]	0r
.	.	.	4c	.
2F	.	1A	4B	.
.	.	.	4A	.
1E	2r	.	1B	.
.	2G	2G#i	.	.
=23	=23	=23	=23	=23
2C	2E	1A	[0A	2.a
2D	2.F	.	.	.
.	.	.	.	4b
2.AA	.	1r	.	4cc
.	4E	.	.	4dd
.	4C	.	.	[2ee
4BB	4D	.	.	.
=24	=24	=24	=24	=24
2C	2E	1r	0A]	2ee]
2D	2F	.	.	1dd
1AA	1E	2r	.	.
.	.	2e	.	2cc#i
=25	=25	=25	=25	=25
1D	4D	2.f	0r	2dd
.	4E	.	.	.
.	4F	.	.	4a
.	4G	8eL	.	4b
.	.	8dJ	.	.
1r	2.A	2.c	.	4cc
.	.	.	.	4dd
.	.	.	.	[2ee
.	4B	4d	.	.
=26	=26	=26	=26	=26
0r	2c	2e	0r	2ee]
.	2d	2f	.	1dd
.	1A	1e	.	.
.	.	.	.	2cc#i
=27	=27	=27	=27	=27
1r	2r	1d	2.d	0dd
.	2D	.	.	.
.	.	.	4e	.
2r	2.D	2r	4f	.
.	.	.	4g	.
2D	.	[2d	[2a	.
.	4E	.	.	.
=28	=28	=28	=28	=28
2BB	2F	4d]	2a]	2r
.	.	4c	.	.
2GG	2G	2B	1g	2dd
1D	1D	1A	.	2dd
.	.	.	2f#i	2dd
=29	=29	=29	=29	=29
2GG	0r	2G	2g	1.dd
2D	.	2B	4d	.
.	.	.	4e	.
2.D	.	1A	4f	.
.	.	.	4g	.
.	.	.	[2a	2cc
8EL	.	.	.	.
8FJ	.	.	.	.
=30	=30	=30	=30	=30
2G	0r	1r	2a]	2b
2E	.	.	1g	2g
1D	.	1d	.	1a
.	.	.	2f#i	.
=31	=31	=31	=31	=31
0GG	1r	1.B	0g	2g
.	.	.	.	2dd
.	2r	.	.	2dd
.	2G	2B	.	2dd
=32	=32	=32	=32	=32
0r	2.G	2.B	2r	1.dd
.	.	.	2g	.
.	4A	4c	.	.
.	2B	2d	2g	.
.	2c	2e	2g	2cc
=33	=33	=33	=33	=33
0r	1G	2d	1.g	2b
.	.	2B	.	2g
.	1r	2c	.	1a
.	.	[2d	2f	.
=34	=34	=34	=34	=34
1r	1C	2d]	2e	0g
.	.	1c	2c	.
1GG	1G	.	1d	.
.	.	2B	.	.
=35	=35	=35	=35	=35
1.C	1.E	1c	2c	0r
.	.	.	2g	.
.	.	2c	2g	.
2C	2E	[2e	2g	.
=36	=36	=36	=36	=36
2.C	2.E	4e]	1.g	0r
.	.	4d	.	.
.	.	4c	.	.
4D	4F	4B	.	.
2E	2G	2c	.	.
2F	2A	2d	2f	.
=37	=37	=37	=37	=37
1C	2G	2c	2e	0r
.	1c	2G	2c	.
1G	.	2r	1d	.
.	2B	2d	.	.
=38	=38	=38	=38	=38
0C	1.c	0e	0c	1r
.	.	.	.	1g
.	2c	.	.	.
=39	=39	=39	=39	=39
1F	1c	1c	0r	1a
1F	2.A	1d	.	1a
.	4B	.	.	.
=40	=40	=40	=40	=40
2.E	2c	1.e	0r	0g
.	2G	.	.	.
4D	.	.	.	.
2C	2G	.	.	.
2BB	2G	2d	.	.
=41	=41	=41	=41	=41
2AA	2.A	2c	0r	1.cc
1A	.	2A	.	.
.	8GL	.	.	.
.	8FJ	.	.	.
.	2A	1e	.	.
2G	2B	.	.	2b
=42	=42	=42	=42	=42
2.F	2c	0r	1r	1a
.	2F	.	.	.
8EL	.	.	.	.
8DJ	.	.	.	.
1E	1G	.	1c	1g
=43	=43	=43	=43	=43
0D	1A	1r	1d	2.f
.	.	.	.	4e
.	2r	2r	1d	1f
.	2A	[2A	.	.
=44	=44	=44	=44	=44
1r	2.A	4A]	0c	0e
.	.	4B	.	.
.	.	4c	.	.
.	8GL	4d	.	.
.	8FJ	.	.	.
1AA	2E	2e	.	.
.	[2A	2c	.	.
=45	=45	=45	=45	=45
1.D	4A]	1d	1.f	0r
.	4G	.	.	.
.	4F	.	.	.
.	4E	.	.	.
.	2D	1A	.	.
2C	[2A	.	2e	.
=46	=46	=46	=46	=46
1BB	2A]	1r	1d	0r
.	1G	.	.	.
1AA	.	1A	1c	.
.	2F#i	.	.	.
=47	=47	=47	=47	=47
0GG	1G	1.d	2.B	1r
.	.	.	4A	.
.	2r	.	1B	1g
.	2G	2d	.	.
=48	=48	=48	=48	=48
2r	2F	1d	0A	1a
2D	2D	.	.	.
2D	2.F	1d	.	1f
2D	.	.	.	.
.	4G	.	.	.
=49	=49	=49	=49	=49
2.AA	2.A	2.c	0r	2e
.	.	.	.	2cc
4BB	8GL	4d	.	.
.	8FJ	.	.	.
2C	2E	4e	.	2cc
.	.	4f	.	.
2AA	2A	[2e	.	2cc
=50	=50	=50	=50	=50
2E	2G	4e]	0r	2b
.	.	4c	.	.
2F	2A	2d	.	1a
1E	1B	1e	.	.
.	.	.	.	2g#i
=51	=51	=51	=51	=51
0AA	1A	1c	1r	2a
.	.	.	.	1cc
.	2r	2r	1c	.
.	2A	2e	.	2cc
=52	=52	=52	=52	=52
0r	1D	1f	1d	2b
.	.	.	.	1a
.	1E	1e	1B	.
.	.	.	.	2g#i
=53	=53	=53	=53	=53
2r	2F	2c	2A	[0al
2D	2D	2d	2f	.
2D	2.F	2.A	2f	.
2D	.	.	2f	.
.	4G	4B	.	.
=54	=54	=54	=54	=54
2C	2A	2c	2e	0a_
2D	2F	2A	1d	.
1AA	1E	2r	.	.
.	.	2e	2c#i	.
=55	=55	=55	=55	=55
2r	2D	2f	2d	0a_
2D	2A	1d	1f	.
2D	2F	.	.	.
2AA	[2A	[2c	2f	.
=56	=56	=56	=56	=56
2C	4A]	4c]	2e	0a_
.	4G	4B	.	.
2D	2F	4A	1d	.
.	.	4G	.	.
1AA	1E	1A	.	.
.	.	.	2c#i	.
=57	=57	=57	=57	=57
0Dl	0Dl	0Fl	0dl	0a]
=58||	=58||	=58||	=58||	=58||
*M2/1	*M2/1	*M2/1	*M2/1	*M2/1
*met(C|)	*met(C|)	*met(C|)	*met(C|)	*met(C|)
!!section: Qui tollis
!!!OMD: Qui tollis
0AA	0E	0A	0c	0r
=59	=59	=59	=59	=59
1C	1E	1A	1e	0r
1D	1F	1A	1d	.
=60	=60	=60	=60	=60
2GG	2D	1G	2B	0r
2.C	2.E	.	2.c	.
.	.	1G	.	.
4D	4F	.	4B	.
2E	2G	.	2c	.
=61	=61	=61	=61	=61
1.F	4D	1A	2.d	0a
.	4E	.	.	.
.	4F	.	.	.
.	4G	.	4c	.
.	2A	2D	4d	.
.	.	.	4e	.
2D	2F	[2A	[2f	.
=62	=62	=62	=62	=62
2D	2D	4A]	4f]	1a
.	.	4G	4e	.
1D	2A	4F	4d	.
.	.	4E	4c	.
.	2A	1F	1d	1a
2D	2A	.	.	.
=63	=63	=63	=63	=63
2G	2B	0E	1e	1g
2C	2c	.	.	.
1G	1B	.	2r	1g
.	.	.	2e	.
=64	=64	=64	=64	=64
0D	0A	0r	1.f	1a
.	.	.	.	2d
.	.	.	4e	[2a
.	.	.	4d	.
=65	=65	=65	=65	=65
1r	2r	1r	1c	4a]
.	.	.	.	4g
.	2A	.	.	4f
.	.	.	.	4e
1D	2F	2.A	1d	1f
.	2D	.	.	.
.	.	4B	.	.
=66	=66	=66	=66	=66
2.AA	2.A	4c	2e	0e
.	.	4d	.	.
.	.	2e	2c	.
4BB	8GL	.	.	.
.	8FJ	.	.	.
2C	2E	4A	[1c	.
.	.	4B	.	.
2AA	2A	4c	.	.
.	.	4d	.	.
=67	=67	=67	=67	=67
2C	2G	2e	2c]	0r
2D	2F	1d	2B	.
1AA	1E	.	1A	.
.	.	2c#i	.	.
=68	=68	=68	=68	=68
0D	1D	0d	1A	1r
.	1F	.	1r	2.a
.	.	.	.	4b
=69	=69	=69	=69	=69
0r	2E	0r	2r	4cc
.	.	.	.	4dd
.	2A	.	2e	2ee
.	4F	.	2.f	4a
.	4G	.	.	4b
.	4A	.	.	4cc
.	4B	.	8eL	4dd
.	.	.	8dJ	.
=70	=70	=70	=70	=70
0r	2c	0r	2c	2ee
.	2d	.	2f	1dd
.	1A	.	1e	.
.	.	.	.	2cc#i
=71	=71	=71	=71	=71
1A	2.F	2.D	1d	0dd
.	4G	4D	.	.
2.F	2A	2D	2r	.
.	2D	2D	[2f	.
4E	.	.	.	.
=72	=72	=72	=72	=72
2D	2A	2F	2f]	0r
1G	2B	2G	1e	.
.	2c	1A	.	.
2F	2d	.	[2d	.
=73	=73	=73	=73	=73
1E	1G	2B	2d]	0r
.	.	4G	2c	.
.	.	4A	.	.
1D	1r	4B	2.d	.
.	.	4c	.	.
.	.	[2d	.	.
.	.	.	4c	.
=74	=74	=74	=74	=74
2GG	1.G	4d]	4B	2.d
.	.	4c	4A	.
2.GG	.	4B	2G	.
.	.	4A	.	4d
.	.	1B	[1d	2d
4AA	.	.	.	.
4BB	2G	.	.	2d
4C	.	.	.	.
=75	=75	=75	=75	=75
2D	2F	2A	2d]	2f
2BB	2D	1G	2d	2g
1AA	2E	.	1c	1a
.	2C	2F#i	.	.
=76	=76	=76	=76	=76
0GG	2D	0G	1B	2b
.	2E	.	.	4g
.	.	.	.	4a
.	1D	.	2r	4b
.	.	.	.	4cc
.	.	.	2B	[2dd
=77	=77	=77	=77	=77
2r	1G	1r	2B	4dd]
.	.	.	.	4cc
1G	.	.	2B	4b
.	.	.	.	4a
.	1r	2r	2.e	1b
2E	.	2G	.	.
.	.	.	4d	.
=78	=78	=78	=78	=78
2F	0r	2A	2c	2a
2G	.	2B	2B	1g
2A	.	2c	1A	.
2D	.	2d	.	2f#i
=79	=79	=79	=79	=79
2E	2.G	2.B	1G	0g
2.G	.	.	.	.
.	4A	4c	.	.
.	2B	2d	2r	.
4F	.	.	.	.
4E	[2c	[2e	[2g	.
4D	.	.	.	.
=80	=80	=80	=80	=80
2C	4c]	2e]	2g]	1r
.	4B	.	.	.
2D	2A	2d	2f	.
1E	1G	2c	4e	2r
.	.	.	4f	.
.	.	2B	4g	2g
.	.	.	4e	.
=81	=81	=81	=81	=81
0r	1r	2A	2f	2a
.	.	2G	1g	2b
.	2r	1A	.	2cc
.	2D	.	2f#i	2dd
=82	=82	=82	=82	=82
2.E	2.G	0G	1g	2.b
8DL	8FL	.	.	4cc
8CJ	8EJ	.	.	.
2BB	2D	.	2r	2dd
[2C	[2G	.	[2g	[2ee
=83	=83	=83	=83	=83
2C]	4G]	0r	4g]	2ee]
.	4A	.	4f	.
2BB	2B	.	2d	2dd
2AA	2c	.	4e	2cc
.	.	.	4f	.
2GG	[2d	.	4g	2b
.	.	.	4e	.
=84	=84	=84	=84	=84
2D	4d]	2r	2f	2a
.	4c	.	.	.
2GG	2B	2d	1g	2g
1D	2A	2d	.	1a
.	[2d	2d	2f#i	.
=85	=85	=85	=85	=85
2GG	4d]	1.d	1g	0g
.	4c	.	.	.
2.G	4B	.	.	.
.	4A	.	.	.
.	1G	.	2r	.
4F	.	.	.	.
2E	.	2c	2G	.
=86	=86	=86	=86	=86
2D	2r	2B	2d	0r
1G	2G	4A	1d	.
.	.	4G	.	.
.	1D	1A	.	.
2F#i	.	.	2d	.
=87	=87	=87	=87	=87
1G	2.G	0G	2B	2r
.	.	.	2G	2dd
.	4A	.	.	.
1GG	2B	.	1d	2dd
.	2G	.	.	2dd
=88	=88	=88	=88	=88
2r	1d	2r	1B	1.dd
2G	.	2G	.	.
2D	1d	2A	2r	.
2F	.	2A	2A	2cc
=89	=89	=89	=89	=89
2G	1r	1G	2B	2b
2E	.	.	2.c	4a
.	.	.	.	4g
1F	2.A	1c	.	1a
.	.	.	4B	.
.	.	.	4c	.
.	4B	.	4d	.
=90	=90	=90	=90	=90
0C	4c	1.c	2e	0g
.	4d	.	.	.
.	1e	.	4c	.
.	.	.	4d	.
.	.	.	4e	.
.	.	.	4f	.
.	2d	2B	2g	.
=91	=91	=91	=91	=91
1r	2c	2A	2f	2r
.	2B	2G	1e	2g
1D	1A	1F	.	2a
.	.	.	2d	2a
=92	=92	=92	=92	=92
2G	2B	0E	[0e	1g
1C	2G	.	.	.
.	[1A	.	.	1cc
2AA	.	.	.	.
=93	=93	=93	=93	=93
2AA	1A]	1r	0e]	1.cc
1A	.	.	.	.
.	1r	1A	.	.
2G	.	.	.	2b
=94	=94	=94	=94	=94
2F	1r	1d	1r	2a
2E	.	.	.	2g
1D	1A	1d	2r	1f
.	.	.	2d	.
=95	=95	=95	=95	=95
2.AA	2A	2.c	2e	0e
.	2.A	.	2.c	.
4BB	.	4B	.	.
2C	.	2A	.	.
.	4G	.	4d	.
2C	2E	2G	2e	.
=96	=96	=96	=96	=96
1D	2F	1F	2A	1r
.	2D	.	2d	.
2C	1A	2E	2e	1a
[2D	.	[2A	2d	.
=97	=97	=97	=97	=97
4D]	1F	2A]	2r	1dd
4C	.	.	.	.
4BB	.	4G	2d	.
4AA	.	4F	.	.
1BB	1D	1G	2d	1dd
.	.	.	2d	.
=98	=98	=98	=98	=98
2.AA	2r	1A	2f	2.cc
.	2.A	.	1e	.
4BB	.	.	.	4b
4C	.	2r	.	2a
4D	4B	.	.	.
2E	2c	2G	4d	2g
.	.	.	4c	.
=99	=99	=99	=99	=99
1D	1F	0A	1d	1f
1C	1c	.	1e	2e
.	.	.	.	[2a
=100	=100	=100	=100	=100
1D	1A	1F	1d	2a]
.	.	.	.	4g
.	.	.	.	4f
1E	1G	1E	1B	1g
=101	=101	=101	=101	=101
1AA	0E	2r	2A	1.a
.	.	2c	2e	.
1r	.	2c	2e	.
.	.	2c	2e	2g
=102	=102	=102	=102	=102
2r	0r	2.A	2.c	0a
2.A	.	.	.	.
.	.	4B	4d	.
.	.	2c	2e	.
4G	.	.	.	.
4F	.	[2d	[2f	.
4E	.	.	.	.
=103	=103	=103	=103	=103
1D	0r	4d]	4f]	1f
.	.	4c	4e	.
.	.	4B	4d	.
.	.	4A	4c	.
1E	.	1G	1B	1e
=104	=104	=104	=104	=104
0AA	2r	0A	2A	2r
.	2E	.	2e	2cc
.	2A	.	2e	2cc
.	2A	.	2e	2cc
=105	=105	=105	=105	=105
2r	2.F	0r	1f	2.a
2D	.	.	.	.
.	4G	.	.	4b
2AA	2A	.	2e	2cc
2D	2F	.	2f	[2dd
=106	=106	=106	=106	=106
1GG	1G	0r	1d	4dd]
.	.	.	.	4cc
.	.	.	.	4b
.	.	.	.	4a
1C	1E	.	1e	1g
=107	=107	=107	=107	=107
2AA	1A	2r	1c	0a
2F	.	2c	.	.
2.F	2.A	2c	2r	.
.	.	2c	2A	.
4E	4G	.	.	.
=108	=108	=108	=108	=108
2D	2F	2B	2B	0r
2C	1E	1A	2c	.
1BB	.	.	1d	.
.	2D	2G#i	.	.
=109	=109	=109	=109	=109
[0AA	1E	0A	0c	0r
.	2r	.	.	.
.	2A	.	.	.
=110	=110	=110	=110	=110
1AA]	2c	0E	2r	2r
.	4A	.	1e	2cc
.	4B	.	.	.
2r	4c	.	.	2cc
.	4d	.	.	.
2AA	2e	.	2c	2cc
=111	=111	=111	=111	=111
2BB	2d	0r	2d	2b
2C	2c	.	2e	1a
2D	1B	.	2f	.
2E	.	.	2e	2g#i
=112	=112	=112	=112	=112
1AA	1A	2r	1.c	0a
.	.	2c	.	.
2r	2r	2A	.	.
2AA	[2A	[2c	2A	.
=113	=113	=113	=113	=113
2AA	4A]	4c]	1c	0e
.	4G	4B	.	.
2AA	2.E	1A	.	.
1E	.	.	1B	.
.	4F	.	.	.
.	2G	2G#i	.	.
=114	=114	=114	=114	=114
2AA	2E	[0A	2A	0r
2.F	2.A	.	1c	.
4E	4G	.	.	.
2D	2F	.	2d	.
=115	=115	=115	=115	=115
2C	1E	0A]	2e	2r
2AA	.	.	2c	2cc
2D	2F	.	2d	2a
2C	2E	.	2e	[2cc
=116	=116	=116	=116	=116
2AA	1A	2r	2c	4cc]
.	.	.	.	4b
2.D	.	1F	2d	1a
.	1D	.	2A	.
4C	.	.	.	.
2BB	.	2D	2B	2g#i
=117	=117	=117	=117	=117
2AA	2r	1F	2c	[0al
2D	2A	.	1d	.
1AA	2A	1E	.	.
.	2A	.	2c#i	.
=118	=118	=118	=118	=118
[0Dl	2F	[0Dl	[0dl	0a_
.	2D	.	.	.
.	1A	.	.	.
=119	=119	=119	=119	=119
0D]	0Al	0D]	0d]	0a]
==	==	==	==	==
*-	*-	*-	*-	*-
!!!system-decoration: s1,s2,s3,s4,s5
!!!RDF**kern: i = editorial accidental
!!!RDF**kern: l = terminal long
!!!ENC: Maura Sugg
!!!END: 2026/6/27
!!!EED: Benjamin Ory
!!!EEV: 2026/06/29
!!!YEC: Copyright 2026 Benjamin Ory, All Rights Reserved
!!!ONB: Translated from MusicXML on 2026/06/29
!!!verovio: header encoded
!!!header-left: Edited by Zoe Saunders (2010)\n
!!!header-right:
!!!header-center:
!!muse2ps: T^@{OPR}^u^@{ONM}{. }@{OTL}^C^@{COM}^i2I150v90,90,90,90,120c120z18l2770t130
